public/wave.svg

<svg width="1440" height="113" viewBox="0 0 1440 113" fill="none" xmlns="http://www.w3.org/2000/svg">
<path d="M1440 18C1440 18 1407.91 3.82447 1339.82 0.460532C1206.31 -6.13556 1210.95 60.2161 1076.84 65.6949C957.286 70.5787 908.27 34.9811 787.556 34.2155C679.663 33.5313 629.033 52.3596 521.944 56.2132C331.106 63.0804 215.561 14.7861 35.4271 34.2155C2.42017 37.7757 0 39 0 39V113H1440V18Z" fill="url(#paint0_linear_23_1147)"/>
<path d="M1440 29C1440 29 1393.03 12.8245 1328.74 9.46053C1202.67 2.86444 1207.05 69.2161 1080.41 74.6949C967.523 79.5787 921.238 43.9811 807.251 43.2155C705.371 42.5313 657.562 61.3596 556.441 65.2132C376.239 72.0804 267.132 23.7861 97.0369 43.2155C53.9695 48.135 0 58 0 58V113H1440V29Z" fill="#1C1C2B"/>
<defs>
<linearGradient id="paint0_linear_23_1147" x1="1488.4" y1="57.5" x2="-75.0242" y2="57.5" gradientUnits="userSpaceOnUse">
<stop stop-color="#CFA7EC"/>
<stop offset="1" stop-color="#F8B28B"/>
</linearGradient>
</defs>
</svg>

<svg xmlns="http://www.w3.org/2000/svg" width="1440" height="113" fill="none"><path fill="url(#a)" d="M1440 18S1407.91 3.824 1339.82.46c-133.51-6.596-128.87 59.756-262.98 65.235-119.554 4.884-168.57-30.714-289.284-31.48-107.893-.684-158.523 18.145-265.612 21.998C331.106 63.08 215.561 14.786 35.427 34.215 2.42 37.776 0 39 0 39v74h1440V18Z"/><path fill="#1C1C2B" d="M1440 29s-46.97-16.175-111.26-19.54c-126.07-6.596-121.69 59.756-248.33 65.235-112.887 4.884-159.172-30.714-273.159-31.48-101.88-.684-149.689 18.145-250.81 21.998C376.239 72.08 267.132 23.786 97.037 43.216 53.969 48.134 0 58 0 58v55h1440V29Z"/><defs><linearGradient id="a" x1="1488.4" x2="-75.024" y1="57.5" y2="57.5" gradientUnits="userSpaceOnUse"><stop stop-color="#CFA7EC"/><stop offset="1" stop-color="#F8B28B"/></linearGradient></defs></svg>
